X: 5
T: Kitty Goes A-Milking
R: reel
M: 4/4
L: 1/8
Z: Contributed 2016-06-19 02:44:25 by Rob robertclothier@bigpond.com
K: Gmaj
dG !roll!G2 d2 cA|dG !roll!G2 FGAB|dG !roll!G2 d2 (3e/f/g/|fdcA G2 Bc:|]
dg !roll!g2 ag !roll!g2|dg !roll!g2 d2 cA|dg !roll!g2 ag !roll!g2|cBAB c2 Bc|
dg !roll!g2 ag !roll!g2|dg !roll!g2 d2 cA|defg abag| fdcA G2 Bc |

